usr/share/icons/biglinux-icons-material/scalable/mimetypes/application-x-kexiproject-shortcut.svg

<svg width="24" height="24" viewBox="0 0 24 24" fill="none" xmlns="http://www.w3.org/2000/svg">
<rect x="1" y="1" width="22" height="22" rx="6.6" fill="url(#paint0_radial_1_879)"/>
<path opacity="0.75" d="M12 5C11.5459 5.00044 11.093 5.01292 10.6477 5.03728C10.635 5.03792 10.6216 5.03792 10.6089 5.03856C10.5714 5.04047 10.537 5.04365 10.4995 5.04619C10.0805 5.0707 9.67071 5.10565 9.2752 5.1506C9.27478 5.1506 9.27435 5.1506 9.27393 5.1506C8.8777 5.19682 8.49796 5.25292 8.13956 5.31818C8.11665 5.32264 8.09183 5.32518 8.06892 5.32964C7.72364 5.39452 7.40043 5.46773 7.10319 5.54839C7.07965 5.55475 7.05419 5.5592 7.03128 5.56557C6.74705 5.64424 6.48839 5.72949 6.2582 5.82036C6.22193 5.83436 6.18247 5.84836 6.14747 5.86236C6.09869 5.88365 6.05145 5.9052 6.00578 5.92699C5.93578 5.95881 5.86578 5.99063 5.80215 6.02372C5.75941 6.04669 5.71839 6.0699 5.6791 6.09332C5.61992 6.12769 5.56074 6.16141 5.50855 6.19641C5.47766 6.21822 5.44824 6.24018 5.42031 6.26229C5.37004 6.30047 5.32167 6.33865 5.27967 6.3781C5.25799 6.39955 5.23769 6.4211 5.21877 6.44273C5.1825 6.48219 5.1475 6.52164 5.12077 6.56237C5.10435 6.58797 5.08985 6.61367 5.07727 6.63943C5.05882 6.67443 5.041 6.70943 5.03018 6.74507C5.0115 6.7996 5.00143 6.85432 5 6.90909V13.2727C5.00254 13.5456 5.21954 13.8151 5.63636 14.0632C5.63884 14.0645 5.64133 14.0657 5.64382 14.067C5.73559 14.1217 5.83679 14.1752 5.94709 14.2273C5.95369 14.2302 5.96032 14.2331 5.96697 14.236C6.0754 14.2867 6.19236 14.3361 6.31747 14.3839C6.33105 14.3889 6.34473 14.3939 6.35849 14.3988C6.47683 14.4429 6.60206 14.4857 6.73384 14.5268C6.76172 14.5356 6.78989 14.5443 6.81836 14.5529C6.95037 14.5926 7.08846 14.6308 7.23224 14.6673C7.25325 14.6727 7.27438 14.6781 7.29563 14.6834C7.45335 14.7228 7.61758 14.7601 7.78782 14.7953C7.79898 14.7974 7.81017 14.7995 7.82137 14.8015C7.98882 14.8355 8.16175 14.8675 8.33966 14.8972C8.36894 14.9023 8.39836 14.9072 8.42791 14.9122C8.58953 14.9384 8.75497 14.9629 8.92382 14.9855C8.97038 14.9918 9.0172 14.9981 9.06427 15.0041C9.2181 15.0231 9.3744 15.0405 9.53284 15.0563C9.61021 15.0646 9.68811 15.0725 9.76651 15.08C9.87994 15.0903 9.99432 15.0998 10.1095 15.1085C10.2342 15.1182 10.3598 15.1269 10.4861 15.1346C10.5897 15.1407 10.6937 15.1461 10.7981 15.1508C10.9198 15.1567 11.0421 15.1616 11.1648 15.1657C11.2627 15.1692 11.3609 15.1721 11.4593 15.1744C11.6391 15.1788 11.8195 15.1813 12 15.1818C12.2038 15.1813 12.4074 15.1784 12.6103 15.1731C12.6983 15.1707 12.7861 15.1678 12.8738 15.1644C13.0265 15.1596 13.1786 15.1534 13.3299 15.1458C13.4035 15.1415 13.4768 15.137 13.5499 15.1321C13.7011 15.1231 13.8511 15.1127 13.9998 15.101C14.0677 15.0951 14.1352 15.0889 14.2024 15.0824C14.3674 15.0679 14.5303 15.0517 14.6909 15.0339C14.7291 15.0294 14.7673 15.0249 14.8052 15.0202C14.9801 14.9994 15.1517 14.9766 15.3198 14.9519C15.3652 14.9446 15.4104 14.9371 15.4553 14.9295C15.6021 14.9073 15.7459 14.8837 15.8865 14.8587C15.9536 14.8461 16.0199 14.8333 16.0854 14.8201C16.2151 14.7948 16.3415 14.7683 16.4645 14.7406C16.5063 14.7308 16.5478 14.7208 16.5888 14.7108C16.7345 14.6767 16.8751 14.6411 17.0101 14.6039C17.013 14.603 17.0159 14.6022 17.0188 14.6014C17.0238 14.5997 17.0288 14.5981 17.0337 14.5964C17.1906 14.552 17.3395 14.5056 17.4799 14.4572C17.6244 14.4073 17.7596 14.3555 17.8851 14.3019C17.8855 14.3019 17.886 14.3019 17.8864 14.3019C17.8876 14.3014 17.8889 14.301 17.8901 14.3006C18.0132 14.2483 18.1269 14.1944 18.2307 14.139C18.232 14.1382 18.2332 14.1374 18.2345 14.1365C18.2794 14.1123 18.3225 14.0879 18.3636 14.0632C18.7805 13.8151 18.9975 13.5456 19 13.2727V10.7273H17.4823C16.3801 11.1065 14.3501 11.3636 12 11.3636C8.48536 11.3636 5.63636 10.7909 5.63636 10.0909V7.69945C5.637 7.70009 5.63827 7.70009 5.63891 7.70073C5.77619 7.78238 5.93443 7.8613 6.11245 7.93688C6.11945 7.94006 6.12518 7.9426 6.13218 7.94579C6.31044 8.02159 6.50814 8.09386 6.7238 8.16205C6.93292 8.22704 7.15799 8.28809 7.39745 8.34476C7.4159 8.34921 7.43436 8.35303 7.45345 8.35748C7.93691 8.47051 8.47466 8.56501 9.05182 8.63838C9.07473 8.64156 9.09827 8.64411 9.12118 8.64729C9.39332 8.68114 9.67313 8.7102 9.95889 8.73429C9.98371 8.7362 10.0073 8.73875 10.0321 8.74065C10.324 8.76414 10.6213 8.78241 10.922 8.79534C10.9907 8.79853 11.0601 8.79916 11.1294 8.80171C11.4181 8.81213 11.7088 8.81763 12 8.81818C12.6459 8.81747 13.2884 8.79237 13.9091 8.74361V8.12188C13.7 8.13525 13.4876 8.14645 13.2727 8.15544V8.14907C12.8591 8.16845 12.441 8.18182 12 8.18182C11.5609 8.18182 11.1314 8.17291 10.7171 8.15573C10.3385 8.14045 9.97573 8.11691 9.62636 8.08891C9.56466 8.08413 9.50334 8.07916 9.44241 8.07399C9.10896 8.04472 8.78823 8.00972 8.48787 7.96963C8.46814 7.96708 8.44651 7.96454 8.42678 7.96199C8.11751 7.91999 7.83241 7.87099 7.56514 7.81881C7.53547 7.81348 7.50606 7.80809 7.4769 7.80265C7.22681 7.75174 7.00217 7.69702 6.79726 7.63847C6.76003 7.62822 6.72357 7.61786 6.68789 7.6074C6.50143 7.55076 6.3417 7.49094 6.2017 7.42858C6.16223 7.41217 6.12452 7.39559 6.0886 7.37886C6.07014 7.36932 6.05424 7.35977 6.03642 7.35022C5.98161 7.32077 5.93227 7.29092 5.88851 7.26074C5.86879 7.24674 5.85224 7.23274 5.83506 7.21874C5.80316 7.19405 5.77497 7.16918 5.75054 7.14416C5.73336 7.12571 5.72063 7.10725 5.70727 7.08816C5.68934 7.06422 5.67484 7.04018 5.66377 7.01607C5.64909 6.97909 5.63636 6.94727 5.63636 6.90909C5.63652 6.82435 5.67899 6.73983 5.76314 6.65678C5.85113 6.57015 5.98401 6.4856 6.15962 6.40447C6.30471 6.33702 6.48099 6.27338 6.6789 6.21293C6.70051 6.20584 6.72247 6.1988 6.74477 6.1918C6.7456 6.19138 6.74642 6.19095 6.74725 6.19053C6.96489 6.12689 7.21116 6.06835 7.48162 6.01426C7.4918 6.01235 7.50007 6.0098 7.51025 6.00789C7.7788 5.95444 8.0728 5.90544 8.38525 5.86217C8.41532 5.85797 8.44556 5.85383 8.47598 5.84974C8.76617 5.81092 9.07798 5.77783 9.39935 5.74919C9.47287 5.74228 9.54704 5.73565 9.62183 5.72931C9.94764 5.70321 10.2862 5.68221 10.6362 5.66694C10.6829 5.66476 10.7297 5.66268 10.7766 5.66071C11.1734 5.64273 11.5813 5.63636 12 5.63636C12.441 5.63636 12.861 5.64973 13.2727 5.66882V5.66245C13.4876 5.67144 13.7 5.68264 13.9091 5.69601V5.07301C13.2881 5.02478 12.6457 5.00021 12 5ZM12 15.1818H11.3636V17.0909H12V17.7273H6.90909V17.0909H5V19H6.90909V18.3636H17.0909V19H19V17.0909H17.0909V17.7273H12.6364V17.0909H13.2727V15.1818H12ZM16.4545 5V6.90909H17.0909V6.13336C17.4797 6.48018 17.7273 6.98036 17.7273 7.54545C17.7273 8.60309 16.8758 9.45455 15.8182 9.45455H14.5455V10.0909H15.8182C17.2284 10.0909 18.3636 8.95564 18.3636 7.54545C18.3636 6.77864 18.0238 6.09964 17.4899 5.63636H18.3636V5H16.4545ZM5.63636 10.88C6.77164 11.5609 9.25855 11.9994 12 12C14.7427 11.9994 17.2309 11.5609 18.3636 10.88V13.2727C18.3636 13.6103 17.6932 13.934 16.4998 14.1727C15.3064 14.4114 13.6877 14.5455 12 14.5455C10.3123 14.5455 8.69364 14.4114 7.50023 14.1727C6.30682 13.934 5.63636 13.6103 5.63636 13.2727V12V10.88ZM12 15.8182H12.6364V16.4545H12V15.8182ZM5.63636 17.7273H6.27273V18.3636H5.63636V17.7273ZM17.7273 17.7273H18.3636V18.3636H17.7273V17.7273Z" fill="white"/>
<defs>
<radialGradient id="paint0_radial_1_879" cx="0" cy="0" r="1" gradientUnits="userSpaceOnUse" gradientTransform="translate(17.5 1) rotate(116.565) scale(24.5967)">
<stop stop-color="#B084D7"/>
<stop offset="1" stop-color="#783CAF"/>
</radialGradient>
</defs>
</svg>

<svg xmlns="http://www.w3.org/2000/svg" width="24" height="24" fill="none"><rect width="22" height="22" x="1" y="1" fill="url(#a)" rx="6.6"/><path fill="#fff" d="M12 5c-.454 0-.907.013-1.352.037-.013 0-.026 0-.04.002-.037.001-.071.005-.109.007-.418.025-.828.06-1.224.105h-.001c-.396.046-.776.102-1.134.167-.023.005-.048.007-.071.012a12.56 12.56 0 0 0-.966.218c-.023.007-.049.011-.072.018a7.74 7.74 0 0 0-.773.254l-.11.042a4.631 4.631 0 0 0-.142.065c-.07.032-.14.064-.204.097a3.187 3.187 0 0 0-.123.07c-.06.034-.118.067-.17.102a2.01 2.01 0 0 0-.089.066c-.05.038-.098.077-.14.116a1.233 1.233 0 0 0-.061.065.763.763 0 0 0-.141.197.618.618 0 0 0-.078.27v6.363c.003.273.22.542.636.79l.008.004a3.578 3.578 0 0 0 .323.169 5.266 5.266 0 0 0 .391.163 7.302 7.302 0 0 0 .46.154 9.879 9.879 0 0 0 .478.13 12.357 12.357 0 0 0 1.044.214l.088.015a18.136 18.136 0 0 0 1.339.168 22.7 22.7 0 0 0 1.398.086 23.83 23.83 0 0 0 2.385-.034 23.654 23.654 0 0 0 1.14-.098 18.855 18.855 0 0 0 .765-.104 16.893 16.893 0 0 0 .63-.11 13.428 13.428 0 0 0 .934-.219l.015-.005c.157-.044.306-.09.446-.139.144-.05.28-.102.405-.155h.001l.004-.001a4.276 4.276 0 0 0 .474-.238c.416-.248.633-.517.636-.79v-2.546h-1.518c-1.102.38-3.132.637-5.482.637-3.515 0-6.364-.573-6.364-1.273V7.699l.003.002c.137.081.295.16.473.236l.02.009c.178.076.376.148.592.216.209.065.434.126.673.183l.056.012c.484.114 1.022.208 1.599.281l.07.01c.271.033.551.062.837.086l.073.007c.292.023.59.041.89.054.069.004.138.004.207.007a24.84 24.84 0 0 0 2.78-.058v-.622c-.209.013-.421.024-.636.033V8.15a26.905 26.905 0 0 1-2.556.007 27.476 27.476 0 0 1-1.275-.082c-.333-.03-.654-.064-.954-.104l-.061-.008a15.01 15.01 0 0 1-.95-.16 9.02 9.02 0 0 1-.79-.195 4.168 4.168 0 0 1-.598-.228l-.053-.029a1.569 1.569 0 0 1-.147-.09c-.02-.013-.037-.027-.054-.041a.816.816 0 0 1-.084-.075c-.018-.018-.03-.037-.044-.056a.397.397 0 0 1-.043-.072c-.015-.037-.028-.069-.028-.107 0-.085.043-.17.127-.252.088-.087.221-.171.397-.253a4.098 4.098 0 0 1 .585-.212l.002-.001a8.78 8.78 0 0 1 .735-.177l.028-.006a15.186 15.186 0 0 1 .966-.158 21.299 21.299 0 0 1 1.146-.12 27.997 27.997 0 0 1 1.155-.07 27.106 27.106 0 0 1 2.496.009v-.007c.215.01.427.02.636.034v-.623A24.873 24.873 0 0 0 12 5Zm0 10.182h-.636v1.909H12v.636H6.91v-.636H5V19h1.91v-.636h10.18V19H19v-1.91h-1.91v.637h-4.454v-.636h.637v-1.91H12ZM16.454 5v1.91h.637v-.777c.389.347.636.847.636 1.412 0 1.058-.851 1.91-1.909 1.91h-1.272v.636h1.272a2.54 2.54 0 0 0 1.672-4.455h.874V5h-1.91ZM5.636 10.88C6.772 11.56 9.26 12 12 12c2.743 0 5.23-.44 6.364-1.12v2.393c0 .337-.67.661-1.864.9-1.194.238-2.812.373-4.5.373-1.688 0-3.306-.135-4.5-.373-1.193-.239-1.864-.563-1.864-.9V10.88ZM12 15.818h.636v.636H12v-.636Zm-6.364 1.91h.637v.636h-.637v-.637Zm12.091 0h.637v.636h-.637v-.637Z" opacity=".75"/><defs><radialGradient id="a" cx="0" cy="0" r="1" gradientTransform="rotate(116.565 8.441 5.908) scale(24.5967)" gradientUnits="userSpaceOnUse"><stop stop-color="#B084D7"/><stop offset="1" stop-color="#783CAF"/></radialGradient></defs></svg>
